X:139
T:Wotton Underhedge Fair
M:6/8
L:1/8
B:Thompson's Compleat Collection of 200 Favourite Country Dances, vol. 1 (London, 1757)
Z:Transcribed and edited by Flynn Titford-Mock, 2007
Z:abc's:AK/Fiddler's Companion
K:G
c|BGB def|gfe dcB|cAA eAA|cAA A2c|BGB def|gfe dcB|cAg faf|gdB G2:|
|:c|BGB d2B|cAA e2c|BGG d2B|cAA A2c|BGG d2B|cAA e2c|BGB def|gdB G2:|
|:d|gfe dcB|gfg dcB|gfe dcB|cAA A2d|gfe dcB|gfg dcB|cAg faf|gdB G2:|

